X: 49
T:Flowers of Edinburgh
M:4/4
L:1/8
Q:185
S:ABAB
R:Reel
K:G
GE|D2 DE G2 GA|BGBd cBAG|FGFE DEFG|AFdF E2 EF|!
D2 DE G2 GA|BGBd efge|dcBA GFGA|B2 G2 G2 (3def|!
|gdga gbag|fdfg fagf|edef gfed|B2 e>f efgf|!
dBGB d2 cB|egfa gfge|dcBA GFGA|B2 G2 G2:||
% <A name="D1X050">
